X:1
T:Song 18 (Gibbons), 88.68.86
T:Song 18 (Gibbons), 88.68.86
T:Orlando Gibbons (1583-1625)
T:Public Domain Courtesy of the Cyber Hymnal™
C:Orlando Gibbons (1583-1625)
Z:Public Domain
Z:Courtesy of the Cyber Hymnal™
%%score ( 1 2 ) ( 3 4 )
L:1/8
Q:1/4=125
M:3/4
K:G
V:1 treble 
V:2 treble 
V:3 bass 
V:4 bass 
V:1
 [EB]2 | [EB]4 [EG]2 | [FA]4 [GB]2 | G2 z2 ^D2 x2 | E4 [EG]2 | [EG]4 [FA]2 | [GB]4 [GB]2 | %7
 B4 z2 ^A2 | [FB]4 [FB]2 | [Fd]4 [DA]2 | [DB]4 [EG]2 | !fermata![^DF]4 [DF]2 | [EG]4 E2 | %13
 [FA]4 F2 | B2 z2 x6 | G4 [EG]2 | [Ec]4 [EB]2 | [CA]4 [DG]2 | [DF]4 [B,E]2 | [B,^D]4 [=DF]2 | %20
 [DA]4 [DG]2 | G2 z2 x4 | !fermata!E4 |] %23
V:2
 x2 | x6 | x6 | E4 F4 | E4 x2 | x6 | x6 | D2 F4 x2 | x6 | x6 | x6 | x6 | x4 E2 | x4 F2 | %14
 G4 (A4 F2) | G4 x2 | x6 | x6 | x6 | x6 | x6 | x2 (F4 ^D2) | E4 |] %23
V:3
 [E,G,]2 | [E,G,]4 [E,B,]2 | [D,D]4 [G,,D]2 | [A,,C]2 (F,2 B,2) x2 | [E,G,]4 [E,B,]2 | %5
 [E,B,]4 [D,D]2 | [G,D]4 [E,E]2 | [G,B,]2 [F,^C]4 x2 | [B,,^D]4 [B,=D]2 | B,4 [F,A,]2 | %10
 G,4 [E,B,]2 | B,4 [B,,B,]2 | [E,B,]4 [A,^C]2 | [F,^C]4 [B,D]2 | D4- z2 (DC) x2 | %15
 [G,,B,]4 [C,G,]2 | [A,,A,]4 [E,^G,]2 | (A,2 F,2) [B,,G,]2 | [D,A,]4 [E,G,]2 | [B,,F,]4 [B,,B,]2 | %20
 [F,,A,]4 [G,,B,]2 | B,4 z2 B,2 | !fermata![E,G,]4 |] %23
V:4
 x2 | x6 | x6 | x2 B,,4 x2 | x6 | x6 | x6 | x8 | x6 | B,4 x2 | G,4 x2 | B,4 x2 | x6 | x6 | %14
 G,2 D,4 x4 | x6 | x6 | A,,4 x2 | x6 | x6 | x6 | E,2 B,,4 x2 | x4 |] %23

